icons/emotion-laugh-line.svg

<svg viewBox="0 0 24 24" fill="currentColor" xmlns="http://www.w3.org/2000/svg">
    <path d="M12 2C17.5228 2 22 6.47715 22 12C22 17.5228 17.5228 22 12 22C6.47715 22 2 17.5228 2 12C2 6.47715 6.47715 2 12 2ZM12 4C7.58172 4 4 7.58172 4 12C4 16.4183 7.58172 20 12 20C16.4183 20 20 16.4183 20 12C20 7.58172 16.4183 4 12 4ZM12 11C14 11 15.6667 11.3333 17 12C17 14.7614 14.7614 17 12 17C9.23858 17 7 14.7614 7 12C8.33333 11.3333 10 11 12 11ZM8.5 7C9.70968 7 10.7187 7.85917 10.9501 9.00057H6.04989C6.28131 7.85917 7.29032 7 8.5 7ZM15.5 7C16.7097 7 17.7187 7.85917 17.9501 9.00057H13.0499C13.2813 7.85917 14.2903 7 15.5 7Z"/>
</svg>

<svg xmlns="http://www.w3.org/2000/svg" viewBox="0 0 24 24">
    <g>
        <path fill="none" d="M0 0h24v24H0z"/>
        <path fill-rule="nonzero" d="M12 2c5.523 0 10 4.477 10 10s-4.477 10-10 10S2 17.523 2 12 6.477 2 12 2zm0 2a8 8 0 1 0 0 16 8 8 0 0 0 0-16zm0 7c2 0 3.667.333 5 1a5 5 0 0 1-10 0c1.333-.667 3-1 5-1zM8.5 7a2.5 2.5 0 0 1 2.45 2h-4.9A2.5 2.5 0 0 1 8.5 7zm7 0a2.5 2.5 0 0 1 2.45 2h-4.9a2.5 2.5 0 0 1 2.45-2z"/>
    </g>
</svg>
